img/icons/mime/large/ag.svg

<svg height="140.9" width="125.3" xmlns="http://www.w3.org/2000/svg" xmlns:xlink="http://www.w3.org/1999/xlink"><linearGradient id="a" gradientTransform="matrix(.939922 0 0 .896911 -12.081733 -3.352424)" gradientUnits="userSpaceOnUse" x1="24" x2="73" y1="16.4" y2="73.4"><stop offset="0" stop-color="#fff"/><stop offset="1" stop-color="#fff" stop-opacity="0"/></linearGradient><linearGradient id="b" gradientTransform="matrix(1.222575 0 0 .738788 -10.653167 -7.742593)" gradientUnits="userSpaceOnUse" x1="12.2" x2="107.8" y1="84" y2="84"><stop offset="0" stop-color="#46a046"/><stop offset=".4" stop-color="#df421e"/><stop offset=".7" stop-color="#ada7c8"/><stop offset="1" stop-color="#eed680"/></linearGradient><g stroke="#000"><rect fill="none" height="133.4" rx="22.9" stroke-linejoin="round" stroke-opacity=".5" stroke-width="7.5" width="117.8" x="3.8" y="3.8"/><rect fill="#df421e" height="133.4" rx="22.9" stroke-width="3.8" width="117.8" x="3.6" y="3.7"/><rect fill="url(#b)" height="67.2" rx="1.3" stroke-width="3.3" width="113.7" x="5.9" y="20.8"/></g><path d="m100.3 132.6h-75.7c-11.6 0-17.3-5.7-17.3-17.4 0 0 27.6-66.5 110.4-76.6v76.6c0 11.7-5.7 17.4-17.4 17.4z" fill="#fff" fill-opacity=".3"/><path d="m24.6 7.3h75.7c11.7 0 17.4 5.7 17.4 17.4 0 0-79.3.9-110.4 91.3v-91.3c0-10.3 7-17.4 17.3-17.4z" fill="url(#a)"/><path d="m77.2 128.1c-4.2 0-7.4-1.3-9.7-4-2.2-2.7-3.3-6.5-3.3-11.6 0-5 1.1-8.9 3.3-11.5 2.3-2.7 5.5-4 9.7-4h16.8v5.3h-14.8c-2.5 0-4.4.9-5.7 2.6s-1.9 4.3-1.9 7.6c0 3.5.6 6 1.8 7.7s3.1 2.6 5.8 2.6h8.2v-7.7h-8.8v-5.1h15.4v18.1zm-48.2 0 13.4-31.1h6.8l13.3 31.1h-7.1l-3.1-7.6h-13l-3.1 7.6zm16.8-23.5-4.6 11.1h9.1z"/><path d="m76.6 127.4c-4.3 0-7.5-1.3-9.8-4-2.2-2.7-3.3-6.5-3.3-11.5 0-5.1 1.1-9 3.3-11.6 2.3-2.7 5.5-4 9.8-4h16.7v5.4h-14.7c-2.6 0-4.5.8-5.8 2.5s-1.9 4.3-1.9 7.7.6 5.9 1.8 7.6c1.2 1.8 3.1 2.6 5.9 2.6h8.1v-7.7h-8.8v-5.1h15.4v18.1zm-48.2 0 13.3-31.1h6.8l13.3 31.1h-7.1l-3.1-7.5h-13l-3.1 7.5zm16.7-23.5-4.5 11.1h9z" fill="#fff"/></svg>

<svg xmlns:svg="http://www.w3.org/2000/svg" xmlns="http://www.w3.org/2000/svg" xmlns:xlink="http://www.w3.org/1999/xlink" height="140.9" width="125.3" id="svg1" version="1">
<style>
.s0{
  stop-color:#46a046;
  stop-opacity:1;
}
.s1{
  stop-color:#df421e;
  stop-opacity:1;
}
.s2{
  stop-color:#ada7c8;
  stop-opacity:1;
}
.s3{
  stop-color:#eed680;
  stop-opacity:1;
}
.s4{
  stop-color:#00ff00;
  stop-opacity:1;
}
.s5{
  stop-color:#ff0000;
  stop-opacity:1;
}
.s6{
  stop-color:#7f8cff;
  stop-opacity:1;
}
.s7{
  stop-color:#ffff00;
  stop-opacity:1;
}

</style>  <metadata id="metadata15"/>
  <defs id="defs3">
    <linearGradient id="linearGradient3587">
      <stop offset="0" id="stop3589" style="stop-color:#efe0cd;stop-opacity:0.6"/>
      <stop offset="1" id="stop3591" style="stop-color:#cececd;stop-opacity:0.2"/>
    </linearGradient>
    <linearGradient id="linearGradient2832">
      <stop id="stop2834" offset="0" style="stop-color:#ffffff;stop-opacity:1"/>
      <stop id="stop2836" offset="1" style="stop-color:#ffffff;stop-opacity:0"/>
    </linearGradient>
    <linearGradient id="linearGradient839">
      <stop id="stop840" offset="0" class="s0"/>
      <stop id="stop841" offset="0.4" class="s1"/>
      <stop id="stop842" offset="0.7" class="s2"/>
      <stop id="stop843" offset="1" class="s3"/>
    </linearGradient>
    <linearGradient y2="84" x2="107.8" y1="84" x1="12.2" id="linearGradient836" xlink:href="#linearGradient839" gradientTransform="scale(1.353569,0.738788)" gradientUnits="userSpaceOnUse"/>
    <linearGradient gradientUnits="userSpaceOnUse" y2="73.4" x2="73" y1="16.4" x1="24" gradientTransform="matrix(0.939922,0,0,0.896911,-12.081733,-3.3524237)" id="linearGradient2830" xlink:href="#linearGradient2832"/>
    <linearGradient xlink:href="#linearGradient1700" id="linearGradient1407" gradientUnits="userSpaceOnUse" gradientTransform="matrix(0.777129,0,0,0.894628,-162.4688,12.76856)" x1="111.3" y1="124.3" x2="107.3" y2="93.7"/>
    <linearGradient xlink:href="#linearGradient1700" id="linearGradient1390" gradientUnits="userSpaceOnUse" gradientTransform="matrix(0.777129,0,0,0.894628,-2.922179,10.43077)" x1="111.3" y1="124.3" x2="107.3" y2="93.7"/>
    <linearGradient id="linearGradient1350">
      <stop id="stop1352" offset="0" class="s0"/>
      <stop id="stop1354" offset="0.4" class="s1"/>
      <stop id="stop1356" offset="0.7" class="s2"/>
      <stop id="stop1358" offset="1" class="s3"/>
    </linearGradient>
    <linearGradient y2="0.5" x2="1" y1="0.5" x1="0" id="linearGradient1360" xlink:href="#linearGradient839"/>
    <linearGradient gradientUnits="userSpaceOnUse" y2="88" x2="128.7" y1="121.7" x1="123.5" gradientTransform="matrix(0.870364,0,0,1.001961,4.612015,4.886798)" id="linearGradient1362" xlink:href="#linearGradient1700"/>
    <linearGradient y2="0.5" x2="1" y1="0.5" x1="0" id="linearGradient1363" xlink:href="#linearGradient839"/>
    <linearGradient id="linearGradient1353">
      <stop id="stop1355" offset="0" class="s0"/>
      <stop id="stop1357" offset="0.4" class="s1"/>
      <stop id="stop1359" offset="0.7" class="s2"/>
      <stop id="stop1361" offset="1" class="s3"/>
    </linearGradient>
    <linearGradient id="linearGradient1700">
      <stop id="stop1701" offset="0" style="stop-color:#000000;stop-opacity:0.7"/>
      <stop id="stop1702" offset="1" style="stop-color:#000000;stop-opacity:0"/>
    </linearGradient>
    <linearGradient xlink:href="#linearGradient839" id="linearGradient1427" x1="0" y1="0.5" x2="1" y2="0.5"/>
    <linearGradient id="linearGradient1417">
      <stop offset="0" id="stop1419" class="s0"/>
      <stop offset="0.4" id="stop1421" class="s1"/>
      <stop offset="0.7" id="stop1423" class="s2"/>
      <stop offset="1" id="stop1425" class="s3"/>
    </linearGradient>
    <linearGradient y2="0.5" x2="1" y1="0.5" x1="0" id="linearGradient1381" xlink:href="#linearGradient839"/>
    <linearGradient id="linearGradient1371">
      <stop id="stop1373" offset="0" class="s0"/>
      <stop id="stop1375" offset="0.4" class="s1"/>
      <stop id="stop1377" offset="0.7" class="s2"/>
      <stop id="stop1379" offset="1" class="s3"/>
    </linearGradient>
    <linearGradient xlink:href="#linearGradient839" id="linearGradient1374" x1="0" y1="0.5" x2="1" y2="0.5"/>
    <linearGradient id="linearGradient1364">
      <stop offset="0" id="stop1366" class="s0"/>
      <stop offset="0.4" id="stop1368" class="s1"/>
      <stop offset="0.7" id="stop1370" class="s2"/>
      <stop offset="1" id="stop1372" class="s3"/>
    </linearGradient>
    <linearGradient xlink:href="#linearGradient839" id="linearGradient1389" x1="0" y1="0.5" x2="1" y2="0.5"/>
    <linearGradient id="linearGradient833">
      <stop offset="0" id="stop834" class="s4"/>
      <stop offset="0.3" id="stop837" class="s5"/>
      <stop offset="0.8" id="stop838" class="s6"/>
      <stop offset="1" id="stop835" class="s7"/>
    </linearGradient>
    <linearGradient id="linearGradient1373">
      <stop offset="0" id="stop1376" class="s0"/>
      <stop offset="0.4" id="stop1378" class="s1"/>
      <stop offset="0.7" id="stop1380" class="s2"/>
      <stop offset="1" id="stop1382" class="s3"/>
    </linearGradient>
    <linearGradient xlink:href="#linearGradient839" id="linearGradient1401" gradientUnits="userSpaceOnUse" gradientTransform="matrix(1.222575,0,0,0.738788,-10.653167,-7.7425927)" x1="12.2" y1="84" x2="107.8" y2="84"/>
    <linearGradient xlink:href="#linearGradient839" id="linearGradient2974" x1="0" y1="0.5" x2="1" y2="0.5"/>
    <linearGradient id="linearGradient2964">
      <stop offset="0" id="stop2966" class="s4"/>
      <stop offset="0.3" id="stop2968" class="s5"/>
      <stop offset="0.8" id="stop2970" class="s6"/>
      <stop offset="1" id="stop2972" class="s7"/>
    </linearGradient>
    <linearGradient id="linearGradient2954">
      <stop offset="0" id="stop2956" class="s0"/>
      <stop offset="0.4" id="stop2958" class="s1"/>
      <stop offset="0.7" id="stop2960" class="s2"/>
      <stop offset="1" id="stop2962" class="s3"/>
    </linearGradient>
    <linearGradient xlink:href="#linearGradient839" id="linearGradient2987" gradientUnits="userSpaceOnUse" gradientTransform="matrix(1.353569,0,0,0.738788,-182.1667,-25.6819)" x1="12.2" y1="84" x2="107.8" y2="84"/>
    <linearGradient y2="0.5" x2="1" y1="0.5" x1="0" id="linearGradient1418" xlink:href="#linearGradient839"/>
    <linearGradient id="linearGradient1408">
      <stop id="stop1410" offset="0" class="s4"/>
      <stop id="stop1412" offset="0.3" class="s5"/>
      <stop id="stop1414" offset="0.8" class="s6"/>
      <stop id="stop1416" offset="1" class="s7"/>
    </linearGradient>
    <linearGradient id="linearGradient1397">
      <stop id="stop1399" offset="0" class="s0"/>
      <stop id="stop1401" offset="0.4" class="s1"/>
      <stop id="stop1403" offset="0.7" class="s2"/>
      <stop id="stop1405" offset="1" class="s3"/>
    </linearGradient>
    <linearGradient y2="84" x2="107.8" y1="84" x1="12.2" gradientTransform="matrix(1.353569,0,0,0.738788,-194.7091,-13.83491)" gradientUnits="userSpaceOnUse" id="linearGradient1431" xlink:href="#linearGradient839"/>
    <linearGradient xlink:href="#linearGradient839" id="linearGradient1430" x1="0" y1="0.5" x2="1" y2="0.5"/>
    <linearGradient id="linearGradient1419">
      <stop offset="0" id="stop1422" class="s4"/>
      <stop offset="0.3" id="stop1424" class="s5"/>
      <stop offset="0.8" id="stop1426" class="s6"/>
      <stop offset="1" id="stop1428" class="s7"/>
    </linearGradient>
    <linearGradient id="linearGradient1409">
      <stop offset="0" id="stop1411" class="s0"/>
      <stop offset="0.4" id="stop1413" class="s1"/>
      <stop offset="0.7" id="stop1415" class="s2"/>
      <stop offset="1" id="stop1417" class="s3"/>
    </linearGradient>
    <linearGradient xlink:href="#linearGradient839" id="linearGradient2256" x1="0" y1="0.5" x2="1" y2="0.5"/>
    <linearGradient id="linearGradient2246">
      <stop offset="0" id="stop2248" class="s4"/>
      <stop offset="0.3" id="stop2250" class="s5"/>
      <stop offset="0.8" id="stop2252" class="s6"/>
      <stop offset="1" id="stop2254" class="s7"/>
    </linearGradient>
    <linearGradient id="linearGradient2236">
      <stop offset="0" id="stop2238" class="s0"/>
      <stop offset="0.4" id="stop2240" class="s1"/>
      <stop offset="0.7" id="stop2242" class="s2"/>
      <stop offset="1" id="stop2244" class="s3"/>
    </linearGradient>
    <linearGradient xlink:href="#linearGradient839" id="linearGradient2269" gradientUnits="userSpaceOnUse" gradientTransform="matrix(1.353569,0,0,0.738788,-202.1667,-3.665422)" x1="12.2" y1="84" x2="107.8" y2="84"/>
    <linearGradient y2="0.5" x2="1" y1="0.5" x1="0" id="linearGradient1452" xlink:href="#linearGradient839"/>
    <linearGradient id="linearGradient1442">
      <stop id="stop1444" offset="0" class="s4"/>
      <stop id="stop1446" offset="0.3" class="s5"/>
      <stop id="stop1448" offset="0.8" class="s6"/>
      <stop id="stop1450" offset="1" class="s7"/>
    </linearGradient>
    <linearGradient id="linearGradient1432">
      <stop id="stop1434" offset="0" class="s0"/>
      <stop id="stop1436" offset="0.4" class="s1"/>
      <stop id="stop1438" offset="0.7" class="s2"/>
      <stop id="stop1440" offset="1" class="s3"/>
    </linearGradient>
    <linearGradient y2="0.5" x2="1" y1="0.5" x1="0" id="linearGradient2281" xlink:href="#linearGradient839"/>
    <linearGradient id="linearGradient2271">
      <stop id="stop2273" offset="0" class="s4"/>
      <stop id="stop2275" offset="0.3" class="s5"/>
      <stop id="stop2277" offset="0.8" class="s6"/>
      <stop id="stop2279" offset="1" class="s7"/>
    </linearGradient>
    <linearGradient id="linearGradient2261">
      <stop id="stop2263" offset="0" class="s0"/>
      <stop id="stop2265" offset="0.4" class="s1"/>
      <stop id="stop2267" offset="0.7" class="s2"/>
      <stop id="stop2269" offset="1" class="s3"/>
    </linearGradient>
    <linearGradient y2="84" x2="107.8" y1="84" x1="12.2" gradientTransform="matrix(1.353569,0,0,0.738788,-163.5227,-7.733217)" gradientUnits="userSpaceOnUse" id="linearGradient2294" xlink:href="#linearGradient839"/>
    <linearGradient xlink:href="#linearGradient839" id="linearGradient1475" x1="0" y1="0.5" x2="1" y2="0.5"/>
    <linearGradient id="linearGradient1465">
      <stop offset="0" id="stop1467" class="s4"/>
      <stop offset="0.3" id="stop1469" class="s5"/>
      <stop offset="0.8" id="stop1471" class="s6"/>
      <stop offset="1" id="stop1473" class="s7"/>
    </linearGradient>
    <linearGradient id="linearGradient1455">
      <stop offset="0" id="stop1457" class="s0"/>
      <stop offset="0.4" id="stop1459" class="s1"/>
      <stop offset="0.7" id="stop1461" class="s2"/>
      <stop offset="1" id="stop1463" class="s3"/>
    </linearGradient>
    <linearGradient xlink:href="#linearGradient839" id="linearGradient1488" gradientUnits="userSpaceOnUse" gradientTransform="matrix(1.353569,0,0,0.738788,-179.4549,-6.038303)" x1="12.2" y1="84" x2="107.8" y2="84"/>
  </defs>
  <rect rx="22.9" ry="22.9" y="3.8" x="3.8" height="133.4" width="117.8" id="rect834" style="fill:none;stroke-linejoin:round;stroke-opacity:0.5;stroke-width:7.5;stroke:#000"/>
  <rect rx="22.9" ry="22.9" y="3.7" x="3.6" height="133.4" width="117.8" id="rect828" style="fill:#df421e;stroke-width:3.8;stroke:#000"/>
  <rect id="rect832" width="113.7" height="67.2" ry="1.3" x="5.9" y="20.8" rx="1.3" style="fill:url(#linearGradient1401);stroke-width:3.3;stroke:#000"/>
  <path id="path2838" d="M100.3 132.6L24.6 132.6C13 132.6 7.3 126.9 7.3 115.2 7.3 115.2 34.9 48.7 117.7 38.6L117.7 115.2C117.7 126.9 112 132.6 100.3 132.6z" style="fill-opacity:0.3;fill:#fff"/>
  <path id="rect2063" d="M24.6 7.3L100.3 7.3C112 7.3 117.7 13 117.7 24.7 117.7 24.7 38.4 25.6 7.3 116L7.3 24.7C7.3 14.4 14.3 7.3 24.6 7.3z" fill="url(#linearGradient2830)"/>
  <path d="M77.2 128.1C73 128.1 69.8 126.8 67.5 124.1 65.3 121.4 64.2 117.6 64.2 112.5 64.2 107.5 65.3 103.6 67.5 101 69.8 98.3 73 97 77.2 97L94 97 94 102.3 79.2 102.3C76.7 102.3 74.8 103.2 73.5 104.9 72.2 106.6 71.6 109.2 71.6 112.5 71.6 116 72.2 118.5 73.4 120.2 74.6 121.9 76.5 122.8 79.2 122.8L87.4 122.8 87.4 115.1 78.6 115.1 78.6 110 94 110 94 128.1 77.2 128.1zM29 128.1L42.4 97 49.2 97 62.5 128.1 55.4 128.1 52.3 120.5 39.3 120.5 36.2 128.1 29 128.1zM45.8 104.6L41.2 115.7 50.3 115.7 45.8 104.6z" id="path869" style="font-family:Trek;font-size:40;stroke-width:1"/>
  <path d="M76.6 127.4C72.3 127.4 69.1 126.1 66.8 123.4 64.6 120.7 63.5 116.9 63.5 111.9 63.5 106.8 64.6 102.9 66.8 100.3 69.1 97.6 72.3 96.3 76.6 96.3L93.3 96.3 93.3 101.7 78.6 101.7C76 101.7 74.1 102.5 72.8 104.2 71.5 105.9 70.9 108.5 70.9 111.9 70.9 115.3 71.5 117.8 72.7 119.5 73.9 121.3 75.8 122.1 78.6 122.1L86.7 122.1 86.7 114.4 77.9 114.4 77.9 109.3 93.3 109.3 93.3 127.4 76.6 127.4zM28.4 127.4L41.7 96.3 48.5 96.3 61.8 127.4 54.7 127.4 51.6 119.9 38.6 119.9 35.5 127.4 28.4 127.4zM45.1 103.9L40.6 115 49.6 115 45.1 103.9z" id="path1492" style="fill:#fff;font-family:Trek;font-size:40;stroke-width:1"/>
</svg>
